X:1
T:Are You Ready for His Coming?
T:Are You Ready for His Coming?
T:Isaiah Baltzell
T:L. J. B., 1891
T:Public Domain Courtesy of the Cyber Hymnal™
T:Public Domain Courtesy of the Cyber Hymnal™
C:Isaiah Baltzell
Z:Public Domain
Z:Courtesy of the Cyber Hymnal™
%%score ( 1 2 ) ( 3 4 )
L:1/8
Q:1/4=84
M:4/4
K:G
V:1 treble 
V:2 treble 
V:3 bass 
V:4 bass 
V:1
 [B,D][CD] | [DG]<[DG] [DG]>[EA] [GB][GB][GA][DG] | [CE]>[EG] [EG][CE] [B,D]2 DD | %3
w: 1.~Are you|rea- dy, friend, to meet Him Who has|done so much for you? Are you|
w: 2.~Are you|rea- dy, friend, to meet Him? Are your|trea- sures all a- bove? Are you|
w: 3.~Are you|rea- dy, friend, to meet Him Should He|call for you to- night? Are you|
 [DG]<[DG] [DG]>[DA] [GB][Gd][Gd][GB] | [FA]>[^E^G] [FA][=GB] [FA]2 [GB][Gc] | %5
w: rea- dy, friend, to greet Him When He|comes and calls for you? Life is|
w: rea- dy, friend, to greet Him Who is|Truth, and Life, and Love? Is your|
w: rea- dy, friend, to greet Him Should He|come in morn- ing light? Have you|
 [Gd]>[Gd] [Gd][Ge] [Gd][GB][GA]G | [Ge]>[Ge] [Ge][Ge] [Ge]2 [Ge][Ge] | %7
w: short, and time is pass- ing, Ne- ver|to re- turn a- gain; All a-|
w: lamp all trimmed and burn- ing With a|clear and cer- tain glow? All a-|
w: lived for Christ, the Sav- ior— Lived an|ear- nest life and true? All a-|
 [Gd]>[GB] G[FA] [GB]>[Gc] [GB][EA] | [DG]>[DF] [DB][DA] !fermata![DG]2 ||"^Refrain" [GB][Ac] | %10
w: round us they are go- ing From a-|mong the sons of men.||
w: round us they are go- ing; Are you|rea- dy, friend, to go?|Are you|
w: round us they are go- ing; Soon He’ll|come and call for you.||
 [Bd]<[Bd] z4 [GB]G | [ce]<[ce] z4 [ce][ce] | [Bd]>[GB] G[GA] [GB][Gd] [Gd]>[GB] | %13
w: |||
w: rea- dy, are you|rea- dy, When He|comes to ga- ther all His child- ren|
w: |||
 [FA]6 !fermata![Gd]>[Ac] | [GB]>[GB] [GB][GB] [Gd][GB][FA]G | %15
w: ||
w: home? Are your|lamps all trimmed and burn- ing, Do you|
w: ||
 [Ge]>[Ge] [Ge][Ge] [Ge]<[Ge] [Gc][Ge] | [Gd]<[GB] G>[FA] [GB][GB] [FB]>[DA] | G6 |] %18
w: |||
w: wait your Lord’s re- turn- ing? Are you|rea- dy for the Bride- groom when He|comes?|
w: |||
V:2
 x2 | x8 | x6 DD | x8 | x8 | x7 G | x8 | x2 G x5 | x6 || x2 | x7 G | x8 | x2 G x5 | x8 | x7 G | %15
 x8 | x2 G3/2 x9/2 | D2 E>E D2 |] %18
V:3
 G,[G,A,] | [G,B,]<[G,B,] [G,B,]>[G,C] [G,D][G,D][G,D][G,B,] | %2
w: ~ ~|~ ~ ~ ~ ~ ~ ~ ~|
 [C,C]>[C,G,] [C,G,][C,G,] [G,,G,]2 [B,,G,][D,A,] | %3
w: ~ ~ ~ ~ ~ ~ ~|
 [G,B,]<[G,B,] [G,B,]>[G,C] [G,D][G,B,][G,B,][G,D] | [D,D]>[D,D] [D,D][D,D] [D,D]2 G,[G,A,] | %5
w: ~ ~ ~ ~ ~ ~ ~ ~|~ ~ ~ ~ ~ ~ ~|
 [G,B,]>[G,B,] [G,B,][G,C] [G,B,][G,D][G,D][G,B,] | [C,C]>[C,C] [C,C][C,C] [C,C]2 [C,C][C,C] | %7
w: ~ ~ ~ ~ ~ ~ ~ ~|~ ~ ~ ~ ~ ~ ~|
 [G,,B,]>[G,,D] [B,,D][D,D] [G,D]>[G,E] [B,,D][C,C] | [D,B,]>[D,D] [D,D][D,C] !fermata![G,B,]2 || %9
w: ~ ~ ~ ~ ~ ~ ~ ~|~ ~ ~ ~ ~|
 z2 | z2 G,>G, G,G, z2 | z2 [C,G,]>[C,G,] [C,G,][C,G,][C,G,][E,G,] | %12
w: |for the Bride- groom,|for the Bride- groom, ~ ~|
 [G,B,]>[G,D] [G,D][G,D] [G,D][G,B,] [G,B,]>[G,D] | [D,D]2 [D,D]>[D,D] [D,D]2 [D,B,]>[D,C] | %14
w: ~ ~ ~ ~ ~ ~ ~ ~|~ child- ren home, ~ ~|
 [G,D]>[G,D] [G,D][G,D] [G,D][G,B,][D,D][B,,D] | [C,C]>[C,C] [C,C][C,C] [C,C]<[C,C] [C,E][C,C] | %16
w: ~ ~ ~ ~ ~ ~ ~ ~|~ ~ ~ ~ ~ ~ ~ ~|
 [G,B,]<[G,D] [B,,D]>[B,,E] [D,D][D,D] [D,D]>[D,C] | B,2 C>C B,2 |] %18
w: ~ ~ ~ ~ ~ ~ ~ ~|when He comes? *|
V:4
 G, x | x8 | x8 | x8 | x6 G, x | x8 | x8 | x8 | x6 || x2 | x2 G,>G, G,G, x2 | x8 | x8 | x8 | x8 | %15
 x8 | x8 | G,6 |] %18

